X: 35608
T: Saddle The Pony
R: jig
M: 6/8
K: Gmajor
D|:GBA G2B|def gdB|GBA G2B|AFD AFD|
GBA G2B|def g3|ec/A/e dBA|BGG G2:|
d|e3 edB|def gfg|e3 edB|dBA AB/c/d|
e3 edB|def g3|ec/A/e dBA|BGG G2:|

